dist/svg/u1F97F.svg

<?xml version="1.0" encoding="UTF-8"?><svg id="a" xmlns="http://www.w3.org/2000/svg" viewBox="0 0 40 40"><g><g><path d="M2.032,11.746c-.879,2.492-2.399,8.36-.592,15.638,.249,1.005,1.149,1.72,2.185,1.72h7.176l.986-3.049,5.54,1.57c3.463,.981,7.046,1.479,10.646,1.479h7.542c2.149,0,3.891-1.742,3.891-3.891h0c0-1.249-.685-2.398-1.783-2.992l-5.993-3.241c-.592-.32-1.327-.191-1.774,.313l-.62,.699c-.999,1.126-2.616,1.467-3.984,.841L3.777,11.014c-.686-.314-1.494,.021-1.745,.732Z" fill="#8d96c7"/><path d="M1.44,27.384c.249,1.005,1.149,1.72,2.185,1.72h7.176l.986-3.049L.668,22.473c.107,1.541,.344,3.185,.772,4.911Z" fill="#495b73"/></g><path d="M29.43,16.64l4.052,2.243c.326,.181,.503,.547,.441,.915l-.545,3.255c-.227,1.353-1.67,2.129-2.924,1.571l-4.225-1.88c-1.299-.578-1.66-2.253-.714-3.315l2.231-2.503c.426-.477,1.125-.596,1.684-.287Z" fill="#495b73"/></g><rect width="40" height="40" fill="none"/></svg>

<svg id="Layer_1" data-name="Layer 1" xmlns="http://www.w3.org/2000/svg" viewBox="0 0 40 40"><defs><style>.cls-1{fill:#8d96c7;}.cls-2{fill:#495b73;}.cls-3{fill:none;}</style></defs><path class="cls-1" d="M2.032,11.746A27.66,27.66,0,0,0,1.44,27.384,2.259,2.259,0,0,0,3.625,29.1H10.8l.987-3.049,5.54,1.57A39.061,39.061,0,0,0,27.972,29.1h7.542a3.891,3.891,0,0,0,3.891-3.89h0a3.4,3.4,0,0,0-1.783-2.993L31.629,18.98a1.451,1.451,0,0,0-1.775.314l-.619.7a3.424,3.424,0,0,1-3.985.842L3.777,11.014A1.281,1.281,0,0,0,2.032,11.746Z"/><path class="cls-2" d="M1.44,27.384A2.259,2.259,0,0,0,3.625,29.1H10.8l.986-3.049L.668,22.473A28.473,28.473,0,0,0,1.44,27.384Z"/><path class="cls-2" d="M29.43,16.64l4.052,2.243a.881.881,0,0,1,.442.915l-.546,3.255a2.1,2.1,0,0,1-2.923,1.571l-4.226-1.88a2.1,2.1,0,0,1-.714-3.315l2.231-2.5A1.367,1.367,0,0,1,29.43,16.64Z"/><rect class="cls-3" width="40" height="40"/></svg>
